Numix-GalliumOS/48/status/pamac-search.svg

<?xml version="1.0" encoding="UTF-8" standalone="no"?>
<svg
   xmlns:dc="http://purl.org/dc/elements/1.1/"
   xmlns:cc="http://creativecommons.org/ns#"
   xmlns:rdf="http://www.w3.org/1999/02/22-rdf-syntax-ns#"
   xmlns:svg="http://www.w3.org/2000/svg"
   xmlns="http://www.w3.org/2000/svg"
   xmlns:sodipodi="http://sodipodi.sourceforge.net/DTD/sodipodi-0.dtd"
   xmlns:inkscape="http://www.inkscape.org/namespaces/inkscape"
   width="48"
   height="48"
   viewBox="0 0 48 48"
   id="svg2"
   version="1.1"
   inkscape:version="0.91 r"
   sodipodi:docname="pamac-search.svg">
  <metadata
     id="metadata10">
    <rdf:RDF>
      <cc:Work
         rdf:about="">
        <dc:format>image/svg+xml</dc:format>
        <dc:type
           rdf:resource="http://purl.org/dc/dcmitype/StillImage" />
        <dc:title />
      </cc:Work>
    </rdf:RDF>
  </metadata>
  <defs
     id="defs8">
    <clipPath
       id="clipPath-408241621">
      <g
         id="g3616"
         transform="translate(0,-1004.3622)">
        <path
           id="path3618"
           transform="matrix(15.333333,0,0,11.5,414.99999,878.8622)"
           d="m -24,13 c 0,1.105 -0.672,2 -1.5,2 -0.828,0 -1.5,-0.895 -1.5,-2 0,-1.105 0.672,-2 1.5,-2 0.828,0 1.5,0.895 1.5,2 z"
           inkscape:connector-curvature="0"
           style="fill:#1890d0" />
      </g>
    </clipPath>
    <clipPath
       id="clipPath-408241621-1">
      <g
         id="g3616-3"
         transform="translate(0,-1004.3622)">
        <path
           id="path3618-3"
           transform="matrix(15.333333,0,0,11.5,414.99999,878.8622)"
           d="m -24,13 c 0,1.105 -0.672,2 -1.5,2 -0.828,0 -1.5,-0.895 -1.5,-2 0,-1.105 0.672,-2 1.5,-2 0.828,0 1.5,0.895 1.5,2 z"
           inkscape:connector-curvature="0"
           style="fill:#1890d0" />
      </g>
    </clipPath>
  </defs>
  <sodipodi:namedview
     pagecolor="#ffffff"
     bordercolor="#666666"
     borderopacity="1"
     objecttolerance="10"
     gridtolerance="10"
     guidetolerance="10"
     inkscape:pageopacity="0"
     inkscape:pageshadow="2"
     inkscape:window-width="1366"
     inkscape:window-height="747"
     id="namedview6"
     showgrid="true"
     inkscape:zoom="2.8284273"
     inkscape:cx="-256.84459"
     inkscape:cy="0.37767242"
     inkscape:window-x="0"
     inkscape:window-y="21"
     inkscape:window-maximized="1"
     inkscape:current-layer="svg2">
    <inkscape:grid
       type="xygrid"
       id="grid4138" />
  </sodipodi:namedview>
  <path
     style="fill:#c28e5c"
     d="m 15,7 -8,9 15,0 0,-9 z m 11,0 0,9 15,0 -8,-9 z M 7,19 7,41 28.123047,41 28.347656,40.775391 C 28.174605,40.019246 28.078125,39.232652 28.078125,38.427734 28.078125,32.703531 32.781655,28 38.505859,28 39.366006,28 40.198493,28.118535 41,28.318359 L 41,19 Z"
     id="path4"
     inkscape:connector-curvature="0"
     sodipodi:nodetypes="ccccccccccccccssccc" />
  <g
     id="g4161"
     transform="matrix(1.3636364,0,0,1.3636364,23.363636,23.5)"
     style="fill:#3370d0;fill-opacity:1">
    <g
       style="fill:#3370d0;fill-opacity:1"
       id="g3628"
       transform="matrix(0.34782609,0,0,0.34782609,2.6435901,2.6456559)" />
    <g
       transform="matrix(0.49988464,0,0,0.49988464,-37.411065,7.9950011)"
       clip-path="url(#clipPath-408241621)"
       id="g3650"
       style="fill:#3370d0;fill-opacity:1">
      <!-- color: #004794 -->
      <g
         id="g3652"
         style="fill:#3370d0;fill-opacity:1" />
    </g>
  </g>
  <g
     id="g4161-9"
     transform="matrix(1.3636364,0,0,1.3636364,23.363636,23.499999)"
     style="fill:#4db147;fill-opacity:1;stroke:#000000;stroke-opacity:1;stroke-width:4.39999988;stroke-miterlimit:4;stroke-dasharray:none">
    <g
       style="fill:#4db147;fill-opacity:1;stroke:#000000;stroke-opacity:1;stroke-width:12.64999955;stroke-miterlimit:4;stroke-dasharray:none"
       id="g3628-2"
       transform="matrix(0.34782609,0,0,0.34782609,2.6435901,2.6456559)" />
    <g
       transform="matrix(0.49988464,0,0,0.49988464,-37.411065,7.9950011)"
       clip-path="url(#clipPath-408241621-1)"
       id="g3650-2"
       style="fill:#4db147;fill-opacity:1;stroke:#000000;stroke-opacity:1;stroke-width:8.80203057;stroke-miterlimit:4;stroke-dasharray:none">
      <!-- color: #004794 -->
      <g
         id="g3652-0"
         style="fill:#4db147;fill-opacity:1;stroke:#000000;stroke-opacity:1;stroke-width:8.80203057;stroke-miterlimit:4;stroke-dasharray:none" />
    </g>
  </g>
  <path
     inkscape:connector-curvature="0"
     style="fill:#54cdee;fill-rule:evenodd;fill-opacity:1"
     d="m 45.935379,38.428601 c 0,-4.104231 -3.320744,-7.428602 -7.428602,-7.428602 -4.104232,0 -7.428603,3.324371 -7.428603,7.428602 0,1.133515 0.250279,2.198111 0.696431,3.162959 l -2.785726,2.785727 c -1.318505,1.309435 -1.318505,1.322132 0,2.640635 1.309436,1.309436 1.322131,1.309436 2.640637,0 l 2.553582,-2.553581 c 1.226009,0.872352 2.707741,1.392863 4.323679,1.392863 4.107858,0 7.428602,-3.324372 7.428602,-7.428603 z m -3.714302,-0.116072 c 0.03084,1.004748 -0.346401,1.980478 -1.046459,2.7023 -0.700059,0.721822 -1.663093,1.128073 -2.667841,1.128073 -2.05121,0 -3.712489,-1.663092 -3.712489,-3.714301 0,-2.051209 1.661279,-3.714302 3.712489,-3.714302 2.005867,-0.0019 3.650823,1.592363 3.7143,3.59823 z"
     id="path4159" />
</svg>

<svg xmlns="http://www.w3.org/2000/svg" viewBox="0 0 48 48">
 <path d="m 15 7 -8 9 15 0 0 -9 z m 11 0 0 9 15 0 -8 -9 z m -19 12 0 22 21.12 0 0.225 -0.225 c -0.173 -0.756 -0.27 -1.543 -0.27 -2.348 0 -5.724 4.704 -10.428 10.428 -10.428 0.86 0 1.693 0.119 2.494 0.318 l 0 -9.318" style="fill:#c28e5c"/>
 <g transform="matrix(1.3636364,0,0,1.3636364,23.363636,23.5)" style="fill:#3370d0;fill-opacity:1">
  <g transform="matrix(0.49988464,0,0,0.49988464,-37.411065,7.9950011)">
   <!-- color: #004794 -->
  </g>
 </g>
 <g transform="matrix(1.3636364,0,0,1.3636364,23.363636,23.499999)" style="stroke-dasharray:none;stroke-opacity:1;fill:#4db147;stroke-miterlimit:4;fill-opacity:1;stroke:#000;stroke-width:4.4">
  <g transform="matrix(0.49988464,0,0,0.49988464,-37.411065,7.9950011)" style="stroke:#000;stroke-width:8.802">
   <!-- color: #004794 -->
  </g>
 </g>
 <path d="m 45.935 38.429 c 0 -4.104 -3.321 -7.429 -7.429 -7.429 -4.104 0 -7.429 3.324 -7.429 7.429 0 1.134 0.25 2.198 0.696 3.163 l -2.786 2.786 c -1.319 1.309 -1.319 1.322 0 2.641 1.309 1.309 1.322 1.309 2.641 0 l 2.554 -2.554 c 1.226 0.872 2.708 1.393 4.324 1.393 4.108 0 7.429 -3.324 7.429 -7.429 z m -3.714 -0.116 c 0.031 1 -0.346 1.98 -1.046 2.702 -0.7 0.722 -1.663 1.128 -2.668 1.128 -2.051 0 -3.712 -1.663 -3.712 -3.714 0 -2.051 1.661 -3.714 3.712 -3.714 2.01 -0.002 3.651 1.592 3.714 3.598 z" style="fill:#54cdee;fill-opacity:1;fill-rule:evenodd"/>
</svg>
